src/images/opera.svg

<svg fill="none" height="40" viewBox="0 0 41 40" width="41" xmlns="http://www.w3.org/2000/svg" xmlns:xlink="http://www.w3.org/1999/xlink"><linearGradient id="a" gradientUnits="userSpaceOnUse" x1="16.6651" x2="16.6651" y1=".652255" y2="39.4179"><stop offset=".3" stop-color="#ff1b2d"/><stop offset=".438" stop-color="#fa1a2c"/><stop offset=".594" stop-color="#ed1528"/><stop offset=".758" stop-color="#d60e21"/><stop offset=".927" stop-color="#b70519"/><stop offset="1" stop-color="#a70014"/></linearGradient><linearGradient id="b" gradientUnits="userSpaceOnUse" x1="26.7081" x2="26.7081" y1="2.9369" y2="37.2233"><stop offset="0" stop-color="#9c0000"/><stop offset=".7" stop-color="#ff4b4b"/></linearGradient><path d="m13.4168 31.2709c-2.211-2.61-3.64342-6.4693-3.74144-10.7997v-.9424c.09752-4.3304 1.52994-8.1892 3.74144-10.79973 2.8687-3.72646 7.1345-6.08821 11.8968-6.08821 2.9294 0 5.6708.89455 8.0151 2.45031-3.5195-3.14933-8.1619-5.071269-13.2536-5.08967743l-.0746-.00149257c-11.04655 0-20.0005 8.95445-20.0005 20.0005 0 10.7251 8.44399 19.4781 19.0477 19.9756.316.0149.6334.0239.9528.0239 5.1205 0 9.7903-1.9254 13.3287-5.0897-2.3444 1.5548-5.0847 2.4493-8.0151 2.4493-4.7628 0-9.0281-2.3622-11.8973-6.0882z" fill="url(#a)"/><path d="m13.4167 8.72958c1.8349-2.16623 4.2061-3.47273 6.7962-3.47273 5.8211 0 10.5416 6.60115 10.5416 14.74365s-4.7195 14.7437-10.5426 14.7437c-2.5891 0-4.9603-1.3065-6.7947-3.4728 2.8693 3.7265 7.1346 6.0882 11.8974 6.0882 2.9304 0 5.6707-.894 8.0151-2.4488 4.0946-3.6618 6.6718-8.9853 6.6718-14.9108 0-5.924-2.5772-11.24604-6.6703-14.90832-2.3454-1.55576-5.0867-2.45081-8.0171-2.45081-4.7628 0-9.0281 2.36324-11.8974 6.08871z" fill="url(#b)"/></svg>

<svg width="41" height="40" viewBox="0 0 41 40" fill="none" xmlns="http://www.w3.org/2000/svg">
    <path d="M13.4168 31.2709C11.2058 28.6609 9.77338 24.8016 9.67536 20.4712V19.5288C9.77288 15.1984 11.2053 11.3396 13.4168 8.72907C16.2855 5.00261 20.5513 2.64086 25.3136 2.64086C28.243 2.64086 30.9844 3.53541 33.3287 5.09117C29.8092 1.94184 25.1668 0.019901 20.0751 0.00149257L20.0005 0C8.95395 0 0 8.95445 0 20.0005C0 30.7256 8.44399 39.4786 19.0477 39.9761C19.3637 39.991 19.6811 40 20.0005 40C25.121 40 29.7908 38.0746 33.3292 34.9103C30.9848 36.4651 28.2445 37.3596 25.3141 37.3596C20.5513 37.3596 16.286 34.9974 13.4168 31.2714V31.2709Z" fill="url(#paint0_linear_36_1311)"/>
    <path d="M13.4167 8.72958C15.2516 6.56335 17.6228 5.25685 20.2129 5.25685C26.034 5.25685 30.7545 11.858 30.7545 20.0005C30.7545 28.143 26.035 34.7442 20.2119 34.7442C17.6228 34.7442 15.2516 33.4377 13.4172 31.2714C16.2865 34.9979 20.5518 37.3596 25.3146 37.3596C28.245 37.3596 30.9853 36.4656 33.3297 34.9108C37.4243 31.249 40.0015 25.9255 40.0015 20C40.0015 14.076 37.4243 8.75396 33.3312 5.09168C30.9858 3.53592 28.2445 2.64087 25.3141 2.64087C20.5513 2.64087 16.286 5.00411 13.4167 8.72958V8.72958Z" fill="url(#paint1_linear_36_1311)"/>
    <defs>
        <linearGradient id="paint0_linear_36_1311" x1="16.6651" y1="0.652255" x2="16.6651" y2="39.4179" gradientUnits="userSpaceOnUse">
            <stop offset="0.3" stop-color="#FF1B2D"/>
            <stop offset="0.438" stop-color="#FA1A2C"/>
            <stop offset="0.594" stop-color="#ED1528"/>
            <stop offset="0.758" stop-color="#D60E21"/>
            <stop offset="0.927" stop-color="#B70519"/>
            <stop offset="1" stop-color="#A70014"/>
        </linearGradient>
        <linearGradient id="paint1_linear_36_1311" x1="26.7081" y1="2.9369" x2="26.7081" y2="37.2233" gradientUnits="userSpaceOnUse">
            <stop stop-color="#9C0000"/>
            <stop offset="0.7" stop-color="#FF4B4B"/>
        </linearGradient>
    </defs>
</svg>
